<?xml version="1.0" encoding="UTF-8"?>
<map version="1.10" tiledversion="1.11.2" orientation="orthogonal" renderorder="right-down" width="32" height="32" tilewidth="8" tileheight="8" infinite="0" nextlayerid="3" nextobjectid="1">
 <tileset firstgid="1" source="Village.tsx"/>
 <layer id="1" name="Background" width="32" height="32">
  <data encoding="csv">
95,96,97,98,98,98,98,98,98,34,35,35,35,35,35,35,35,35,35,35,35,35,35,35,35,35,35,35,35,35,35,138,
109,110,110,110,110,110,110,111,112,138,138,138,138,138,138,138,138,138,138,138,138,113,114,115,116,117,118,119,138,138,138,50,
123,124,124,124,124,124,124,125,126,138,138,138,138,138,138,138,138,138,138,138,138,127,128,129,130,131,132,133,138,138,138,50,
50,138,138,138,138,138,138,138,138,138,138,138,138,138,138,138,138,138,138,138,138,141,142,143,144,145,146,147,138,138,138,50,
50,138,138,138,138,138,138,138,138,138,138,113,114,115,116,117,118,119,138,138,138,155,156,157,158,159,160,161,138,138,138,50,
50,138,138,138,138,138,138,138,138,138,138,127,128,129,130,131,132,133,138,138,138,169,170,171,172,173,174,175,138,138,138,50,
50,138,113,114,115,120,138,138,138,138,138,141,142,143,144,145,146,147,138,138,138,138,102,138,138,138,138,138,138,138,138,50,
50,138,127,128,129,134,138,138,138,138,138,155,156,157,158,159,160,161,138,138,138,102,88,138,138,138,138,138,138,138,138,50,
50,138,141,142,143,148,138,138,138,138,138,169,170,171,172,173,174,175,138,138,88,102,138,138,138,138,138,138,138,138,138,50,
50,138,155,156,157,162,23,24,138,138,138,138,138,138,138,138,138,138,138,138,73,138,138,135,136,137,138,138,138,138,138,50,
50,138,169,170,171,176,37,38,138,138,138,138,138,138,138,138,138,138,138,88,73,138,138,149,150,151,138,138,138,138,138,50,
50,138,138,73,138,138,138,138,138,138,88,138,88,138,138,138,138,138,138,88,138,138,138,138,138,138,138,138,138,138,138,50,
50,138,138,73,88,138,138,88,138,138,138,138,138,138,138,88,138,138,88,138,138,138,138,138,138,138,138,138,138,138,138,50,
50,138,138,138,138,138,138,51,52,138,138,138,138,138,138,138,138,138,138,138,138,138,138,138,138,138,138,138,138,138,138,50,
50,138,138,138,138,138,138,65,66,138,138,138,138,51,52,138,138,138,138,138,138,138,113,114,115,116,117,118,120,138,138,50,
50,138,138,138,138,138,138,79,80,138,138,138,138,65,66,138,138,138,138,138,138,138,127,128,129,130,131,132,134,138,138,50,
50,138,51,52,138,138,51,52,138,138,138,138,138,79,80,138,51,52,138,138,138,138,141,142,143,144,145,146,148,138,138,50,
50,139,65,66,138,138,65,66,138,138,51,52,138,138,138,138,65,66,138,138,138,138,155,156,157,158,159,160,162,138,138,50,
50,139,79,80,138,138,79,80,138,138,65,66,138,138,138,138,79,80,138,138,138,138,169,170,171,172,173,174,176,138,138,50,
50,139,139,138,51,52,138,138,138,138,79,80,138,138,138,138,138,138,138,138,138,138,138,138,138,138,138,138,138,138,138,50,
50,139,139,138,65,66,138,51,52,138,138,138,138,138,138,138,138,138,138,138,138,138,138,138,138,138,138,138,138,138,138,50,
50,139,139,138,79,80,138,65,66,138,51,52,138,138,51,52,138,138,138,138,138,138,138,138,138,138,138,138,138,138,138,50,
50,51,52,138,138,138,138,79,80,138,65,66,138,138,65,66,138,1,2,3,4,2,3,4,2,3,4,5,138,138,138,50,
50,65,66,138,138,138,138,138,138,138,79,80,138,138,79,80,138,15,16,17,18,16,17,18,16,17,18,19,138,138,138,50,
50,79,80,138,138,51,52,138,138,138,138,138,138,138,138,138,138,29,30,31,32,30,31,32,30,31,32,33,138,138,138,50,
50,138,138,138,138,65,66,138,138,138,138,138,138,138,51,52,138,43,44,45,46,44,45,46,44,45,46,47,138,138,138,50,
50,138,51,52,138,79,80,138,138,138,51,52,138,138,65,66,138,15,16,17,18,16,17,18,16,17,18,19,138,138,138,50,
50,138,65,66,138,138,51,52,138,138,65,66,138,138,79,80,138,29,30,31,32,30,31,32,30,31,32,33,138,138,138,50,
50,138,79,80,138,138,65,66,138,138,79,80,138,138,138,138,138,43,44,45,46,44,45,46,44,45,46,47,138,138,138,50,
50,138,138,138,138,138,79,80,138,138,138,138,138,138,138,138,138,15,16,17,18,16,17,18,16,17,18,19,138,138,138,50,
50,138,138,138,138,138,138,138,138,138,138,138,138,138,138,138,138,15,30,31,32,30,31,32,30,31,32,33,138,138,138,50,
62,63,63,63,63,63,63,63,63,63,63,63,63,63,63,63,64,29,44,45,46,44,45,46,44,45,46,47,62,63,63,64
</data>
 </layer>
 <objectgroup id="2" name="Object Layer 1"/>
</map>
